X: 6665
T: Ceiliuradh Don Oige
R: reel
M: 4/4
K: Edorian
"Em"Be[Be]"Em"e fed"Bm"B|"D"Adfd "Em"edBA|"Em"BeBe "Bm"fedB|"Bm"fedB "Bm"dBAF|
"Em"BeBe "Bm"[fB]ed"Bm"B|"D"Adfd "Bm"edBd|"Bm"f2dB "Em"e2dB|1 "Bm"BAFA "Bm"B2BA:|2 "Bm"BAFA "Bm"B2AB||
K:Edor
|:"Bm"dfff "Em"gfed|"Em"e2eB "Bm"fedB|"Bm"dfdf "Em"gfed|"Bm"fedB "Bm"dBAB|
"Bm"dfff "Em"gfed|"Em"e2Be "Bm"fedB|"Bm"dcdf "Em"gfed|1 "Bm"BAFA "Bm"B2AB:|2 "Bm"BAFA "Bm"B2BA||

